**kern	**kern	**dynam
*part1	*part1	*part1
*staff2	*staff1	*
*I"Piano	*	*
*clefF4	*clefF4	*
*k[]	*k[]	*
*M3/8	*M3/8	*
=1	=1	=1
8EE'L 8E	8G'L	p
8r	8r	.
8CC'J 8C	8c'J	.
=	=	=
8FF'L 8F	8A'L	.
8r	8B'	.
8CC'J 8C	8F'J 8d	.
=	=	=
!	!LO:TX:a:i:t=durchweg staccato	!
8EE'L 8E	8G'L	.
8r	8r	.
8CC'J 8C	8c'J	.
=	=	=
8FF'L 8F	8A'L	.
8r	8B'	.
8CC'J 8C	8F'J 8d	.
=	=	=
8EE'L 8E	8G'L	<
8r	8c'	.
8CC'J 8C	8B'J	.
=	=	=
8DD#X'L 8D#X	(4.F#X [4.B	.
8r	.	.
8CC'J 8C	.	.
=	=	=
8EE'L 8E	4.G) 4.B]	.
8r	.	.
8CC'J 8C	.	.
=	=	=
*-	*-	*-
!!!system-decoration: {(s1,s2)}
